PortableApps/LibreOfficePortable/App/libreoffice/help/media/icon-themes/cmd/sc_rejectalltrackedchanges.svg

<svg viewBox="0 0 16 16" xmlns="http://www.w3.org/2000/svg"><path d="m3 1v5.7070312l1.5058594 1.5136719 1.8710937-1.9179687c.3820843-.3928684 1.0091819-.4050618 1.40625-.0273438l.203125.1953125.2050781-.1953125c.3939618-.3746936 1.0150936-.3660185 1.3984376.0195313l1.9160152 1.9257812 1.494141-1.53125v-2.984375l-2.695312-2.7050781zm1.5117188 13.673828-.3085938.326172h.6171875zm7.0000002 0-.308594.326172h.617187z" fill="#fff"/><path d="m3 0c-.554 0-1 .446-1 1v5.0253906c.220675.0274052.4312562.1100161.5898438.2695313l.4101562.4121093v-5.7070312h6v3.5c0 .277.223.5.5.5h3.5v1.6894531l.376953-.3867187c.172054-.1769102.395004-.2654243.623047-.2871094v-1.515625-.8632812l-3.636719-3.6367188h-.863281zm7 1 3 3h-3zm-5.5 3c-.277 0-.5.223-.5.5s.223.5.5.5h3c.277 0 .5-.223.5-.5s-.223-.5-.5-.5zm-.296875 11-.9453125 1h1.7421875.7695312l-.9492187-1zm7 0-.945313 1h.742188 1.769531l-.949219-1z" fill="#808080"/><path d="m4.5 7c-.277 0-.5.223-.5.5s.223.5.5.5h.2207031l.9765625-1zm5.791016 0 .996093 1h.433594l.943359-.9667969c-.051862-.0181193-.105865-.0332031-.164062-.0332031z" fill="#d65532"/><path d="m1.8808594 7-1.8808594 1.7832031 2.6328125 2.7031249-2.6328125 2.660156 1.8808594 1.853516 2.6289062-2.779297 2.6367188 2.779297.8613281-.859375.8730469.859375 2.6289066-2.779297 2.636718 2.779297 1.853516-1.849609-2.605469-2.652344 2.507813-2.7773439-1.808594-1.7207031-2.580078 2.6464844-2.6328126-2.6464844-.8945313.8496094-.8925781-.8496094-2.5800781 2.6464844zm6.0761718 2.7675781 1.6757813 1.7187499-1.6308594 1.648438-1.6074219-1.636719z" fill="#e68497"/></svg>

<svg viewBox="0 0 16 16" xmlns="http://www.w3.org/2000/svg">
  <path
     style="fill:#ffffff"
     d="M 3 1 L 3 6.7070312 L 4.5058594 8.2207031 L 6.3769531 6.3027344 C 6.7590374 5.909866 7.386135 5.8976726 7.7832031 6.2753906 L 7.9863281 6.4707031 L 8.1914062 6.2753906 C 8.585368 5.900697 9.2064998 5.9093721 9.5898438 6.2949219 L 11.505859 8.2207031 L 13 6.6894531 L 13 3.7050781 L 10.304688 1 L 3 1 z M 4.5117188 14.673828 L 4.203125 15 L 4.8203125 15 L 4.5117188 14.673828 z M 11.511719 14.673828 L 11.203125 15 L 11.820312 15 L 11.511719 14.673828 z "
     />
  <path
     style="fill:#808080"
     d="M 3 0 C 2.446 0 2 0.446 2 1 L 2 6.0253906 C 2.220675 6.0527958 2.4312562 6.1354067 2.5898438 6.2949219 L 3 6.7070312 L 3 1 L 9 1 L 9 4.5 C 9 4.777 9.223 5 9.5 5 L 13 5 L 13 6.6894531 L 13.376953 6.3027344 C 13.549007 6.1258242 13.771957 6.0373101 14 6.015625 L 14 4.5 L 14 3.6367188 L 10.363281 0 L 9.5 0 L 3 0 z M 10 1 L 13 4 L 10 4 L 10 1 z M 4.5 4 C 4.223 4 4 4.223 4 4.5 C 4 4.777 4.223 5 4.5 5 L 7.5 5 C 7.777 5 8 4.777 8 4.5 C 8 4.223 7.777 4 7.5 4 L 4.5 4 z M 4.203125 15 L 3.2578125 16 L 5 16 L 5.7695312 16 L 4.8203125 15 L 4.203125 15 z M 11.203125 15 L 10.257812 16 L 11 16 L 12.769531 16 L 11.820312 15 L 11.203125 15 z "
     />
  <path
     style="fill:#d65532"
     d="M 4.5 7 C 4.223 7 4 7.223 4 7.5 C 4 7.777 4.223 8 4.5 8 L 4.7207031 8 L 5.6972656 7 L 4.5 7 z M 10.291016 7 L 11.287109 8 L 11.720703 8 L 12.664062 7.0332031 C 12.6122 7.0150838 12.558197 7 12.5 7 L 10.291016 7 z "
     />
  <path
     style="fill:#e68497"
     d="M 1.8808594 7 L 0 8.7832031 L 2.6328125 11.486328 L 0 14.146484 L 1.8808594 16 L 4.5097656 13.220703 L 7.1464844 16 L 8.0078125 15.140625 L 8.8808594 16 L 11.509766 13.220703 L 14.146484 16 L 16 14.150391 L 13.394531 11.498047 L 15.902344 8.7207031 L 14.09375 7 L 11.513672 9.6464844 L 8.8808594 7 L 7.9863281 7.8496094 L 7.09375 7 L 4.5136719 9.6464844 L 1.8808594 7 z M 7.9570312 9.7675781 L 9.6328125 11.486328 L 8.0019531 13.134766 L 6.3945312 11.498047 L 7.9570312 9.7675781 z "
     />
</svg>
